X: 14870
T: Garry Shannon's
R: jig
M: 6/8
K: Eminor
"Em"~E3 BEe|"Am7"cBc ecg|"D"dcd Adf|gea ged|
"Em"~E3 BEe|"Am7"cBc ecg|"D"dcd "Bm7"Adf|ge^d e3:|
|:"Am7"bc'b ebe'|bc'b efe|"Bm7"dcd AFA|Ade fed|
[1"Am7"eBB eBB|"D"dAA dAA|"Cmaj7"GFG "Bm7"AFD|FED E3:|
[2"Cmaj7"~e3 bee'|"Am7"c'bc' e'd'c'|"Cmaj"~b3 "B7"^ae=a|ge^d e3||
|:"Cmaj7"~B3 gBg|~B3 gBg|"Bm7"~A3 fAf|~A3 fAf|
[1"Cmaj7"~B3 ~g3|"Am7"~b3 ~e'3|"Bm7"afd Adf|egf edc:|
[2"Cmaj7"~e3 ~d3|"Am7"~c3 ~B3|"C7"~_B3 "B7"~A3|GED "Em"E3||

